cypex/img/main/aboutus__header__infoPanel.svg

<svg width="108" height="32" viewBox="0 0 108 32" fill="none" xmlns="http://www.w3.org/2000/svg">
<rect x="1" y="0.5" width="106" height="31" rx="15.5" fill="url(#paint0_linear_153_4923)" fill-opacity="0.1"/>
<rect x="1" y="0.5" width="106" height="31" rx="15.5" stroke="url(#paint1_linear_153_4923)"/>
<path d="M16.626 20L19.89 11.6H21.348L24.696 20H23.178L22.404 17.996H18.846L18.102 20H16.626ZM19.194 16.838H22.044L20.592 13.178L19.194 16.838ZM29.1943 20.18C28.7983 20.18 28.4403 20.122 28.1203 20.006C27.8043 19.89 27.5303 19.73 27.2983 19.526C27.0663 19.318 26.8783 19.08 26.7343 18.812L26.9263 18.518V20H25.7383V11.36H27.0523V15.428L26.7823 15.134C27.0463 14.75 27.3763 14.446 27.7723 14.222C28.1683 13.994 28.6363 13.88 29.1763 13.88C29.7683 13.88 30.2883 14.022 30.7363 14.306C31.1883 14.586 31.5403 14.964 31.7923 15.44C32.0443 15.916 32.1703 16.446 32.1703 17.03C32.1703 17.482 32.0963 17.9 31.9483 18.284C31.8043 18.668 31.6003 19.002 31.3363 19.286C31.0723 19.566 30.7583 19.786 30.3943 19.946C30.0303 20.102 29.6303 20.18 29.1943 20.18ZM28.9543 19.01C29.3183 19.01 29.6423 18.93 29.9263 18.77C30.2143 18.606 30.4403 18.376 30.6043 18.08C30.7683 17.784 30.8503 17.434 30.8503 17.03C30.8503 16.626 30.7683 16.276 30.6043 15.98C30.4443 15.68 30.2203 15.45 29.9323 15.29C29.6483 15.13 29.3223 15.05 28.9543 15.05C28.5863 15.05 28.2583 15.13 27.9703 15.29C27.6863 15.45 27.4623 15.68 27.2983 15.98C27.1343 16.276 27.0523 16.626 27.0523 17.03C27.0523 17.434 27.1343 17.784 27.2983 18.08C27.4623 18.376 27.6863 18.606 27.9703 18.77C28.2583 18.93 28.5863 19.01 28.9543 19.01ZM36.2607 20.18C35.6407 20.18 35.0867 20.038 34.5987 19.754C34.1147 19.466 33.7347 19.084 33.4587 18.608C33.1827 18.128 33.0447 17.602 33.0447 17.03C33.0447 16.606 33.1227 16.206 33.2787 15.83C33.4387 15.45 33.6627 15.114 33.9507 14.822C34.2427 14.53 34.5847 14.3 34.9767 14.132C35.3687 13.964 35.7987 13.88 36.2667 13.88C36.8867 13.88 37.4387 14.024 37.9227 14.312C38.4107 14.596 38.7927 14.978 39.0687 15.458C39.3447 15.934 39.4827 16.458 39.4827 17.03C39.4827 17.45 39.4027 17.85 39.2427 18.23C39.0867 18.61 38.8647 18.946 38.5767 19.238C38.2887 19.53 37.9487 19.76 37.5567 19.928C37.1647 20.096 36.7327 20.18 36.2607 20.18ZM36.2607 19.01C36.6287 19.01 36.9547 18.93 37.2387 18.77C37.5267 18.606 37.7527 18.376 37.9167 18.08C38.0807 17.784 38.1627 17.434 38.1627 17.03C38.1627 16.626 38.0807 16.276 37.9167 15.98C37.7527 15.68 37.5267 15.45 37.2387 15.29C36.9547 15.13 36.6287 15.05 36.2607 15.05C35.8927 15.05 35.5647 15.13 35.2767 15.29C34.9927 15.45 34.7687 15.68 34.6047 15.98C34.4447 16.276 34.3647 16.626 34.3647 17.03C34.3647 17.434 34.4467 17.784 34.6107 18.08C34.7747 18.376 34.9987 18.606 35.2827 18.77C35.5707 18.93 35.8967 19.01 36.2607 19.01ZM43.1006 20.18C42.5686 20.18 42.1286 20.074 41.7806 19.862C41.4366 19.646 41.1786 19.362 41.0066 19.01C40.8346 18.658 40.7486 18.274 40.7486 17.858V14.06H42.0686V17.612C42.0686 18.02 42.1886 18.348 42.4286 18.596C42.6726 18.84 43.0086 18.962 43.4366 18.962C43.7166 18.962 43.9666 18.9 44.1866 18.776C44.4066 18.648 44.5806 18.47 44.7086 18.242C44.8406 18.014 44.9066 17.75 44.9066 17.45V14.06H46.2266V20H45.0386V19.298C44.8066 19.578 44.5306 19.796 44.2106 19.952C43.8946 20.104 43.5246 20.18 43.1006 20.18ZM50.5585 20.18C49.9785 20.18 49.5145 20.012 49.1665 19.676C48.8185 19.34 48.6445 18.826 48.6445 18.134V12.326H49.9645V14.06H51.6145V15.152H49.9645V17.846C49.9645 18.262 50.0425 18.556 50.1985 18.728C50.3585 18.896 50.5825 18.98 50.8705 18.98C51.0105 18.98 51.1425 18.964 51.2665 18.932C51.3905 18.9 51.5025 18.858 51.6025 18.806L51.8365 19.874C51.6645 19.962 51.4665 20.034 51.2425 20.09C51.0225 20.15 50.7945 20.18 50.5585 20.18ZM47.3425 15.152V14.06H48.8185V15.152H47.3425ZM60.1622 20.18C59.2902 20.18 58.5282 20 57.8762 19.64C57.2242 19.28 56.7162 18.772 56.3522 18.116C55.9922 17.456 55.8122 16.686 55.8122 15.806C55.8122 15.166 55.9182 14.58 56.1302 14.048C56.3462 13.512 56.6482 13.048 57.0362 12.656C57.4282 12.264 57.8902 11.96 58.4222 11.744C58.9542 11.528 59.5382 11.42 60.1742 11.42C60.8142 11.42 61.3662 11.5 61.8302 11.66C62.2982 11.82 62.7062 12.048 63.0542 12.344L62.3582 13.442C62.0942 13.198 61.7862 13.016 61.4342 12.896C61.0822 12.776 60.6942 12.716 60.2702 12.716C59.8022 12.716 59.3802 12.788 59.0042 12.932C58.6282 13.076 58.3062 13.282 58.0382 13.55C57.7742 13.814 57.5702 14.136 57.4262 14.516C57.2862 14.892 57.2162 15.318 57.2162 15.794C57.2162 16.442 57.3422 16.996 57.5942 17.456C57.8502 17.916 58.2102 18.268 58.6742 18.512C59.1422 18.752 59.6942 18.872 60.3302 18.872C60.7542 18.872 61.1622 18.81 61.5542 18.686C61.9502 18.558 62.3202 18.352 62.6642 18.068L63.2882 19.202C62.8842 19.518 62.4222 19.76 61.9022 19.928C61.3862 20.096 60.8062 20.18 60.1622 20.18ZM65.0374 22.688C64.8214 22.688 64.6094 22.664 64.4014 22.616C64.1934 22.568 63.9894 22.486 63.7894 22.37L64.0894 21.242C64.2134 21.322 64.3494 21.382 64.4974 21.422C64.6454 21.462 64.7774 21.482 64.8934 21.482C65.1734 21.482 65.3934 21.416 65.5534 21.284C65.7134 21.152 65.8394 20.948 65.9314 20.672L66.1294 20.096L63.7894 14.06H65.2354L66.8794 18.668L68.4814 14.06H69.8794L67.3114 20.858C67.1274 21.334 66.9214 21.704 66.6934 21.968C66.4654 22.236 66.2134 22.422 65.9374 22.526C65.6614 22.634 65.3614 22.688 65.0374 22.688ZM70.9141 22.52V14.06H72.1021V14.894C72.3381 14.594 72.6401 14.35 73.0081 14.162C73.3761 13.974 73.8301 13.88 74.3701 13.88C74.9501 13.88 75.4641 14.018 75.9121 14.294C76.3641 14.566 76.7161 14.94 76.9681 15.416C77.2201 15.888 77.3461 16.426 77.3461 17.03C77.3461 17.466 77.2741 17.876 77.1301 18.26C76.9861 18.64 76.7801 18.974 76.5121 19.262C76.2481 19.55 75.9321 19.776 75.5641 19.94C75.2001 20.1 74.7961 20.18 74.3521 20.18C73.8881 20.18 73.4801 20.096 73.1281 19.928C72.7761 19.76 72.4761 19.534 72.2281 19.25V22.52H70.9141ZM74.1301 19.01C74.4981 19.01 74.8241 18.93 75.1081 18.77C75.3961 18.606 75.6201 18.376 75.7801 18.08C75.9441 17.784 76.0261 17.434 76.0261 17.03C76.0261 16.626 75.9441 16.276 75.7801 15.98C75.6161 15.68 75.3901 15.45 75.1021 15.29C74.8181 15.13 74.4941 15.05 74.1301 15.05C73.7621 15.05 73.4341 15.13 73.1461 15.29C72.8621 15.45 72.6381 15.68 72.4741 15.98C72.3101 16.276 72.2281 16.626 72.2281 17.03C72.2281 17.434 72.3101 17.784 72.4741 18.08C72.6381 18.376 72.8621 18.606 73.1461 18.77C73.4341 18.93 73.7621 19.01 74.1301 19.01ZM81.4425 20.18C80.8025 20.18 80.2405 20.05 79.7565 19.79C79.2725 19.526 78.8945 19.158 78.6225 18.686C78.3545 18.214 78.2205 17.666 78.2205 17.042C78.2205 16.586 78.2985 16.166 78.4545 15.782C78.6105 15.394 78.8305 15.058 79.1145 14.774C79.3985 14.49 79.7305 14.27 80.1105 14.114C80.4945 13.958 80.9125 13.88 81.3645 13.88C81.8565 13.88 82.2945 13.968 82.6785 14.144C83.0625 14.316 83.3805 14.558 83.6325 14.87C83.8885 15.182 84.0685 15.548 84.1725 15.968C84.2805 16.384 84.2985 16.836 84.2265 17.324H79.4865C79.4785 17.68 79.5565 17.992 79.7205 18.26C79.8845 18.524 80.1185 18.73 80.4225 18.878C80.7305 19.026 81.0925 19.1 81.5085 19.1C81.8445 19.1 82.1685 19.05 82.4805 18.95C82.7965 18.846 83.0825 18.694 83.3385 18.494L83.8485 19.442C83.6565 19.598 83.4245 19.732 83.1525 19.844C82.8805 19.952 82.5965 20.034 82.3005 20.09C82.0045 20.15 81.7185 20.18 81.4425 20.18ZM79.5645 16.352H82.9305C82.9185 15.904 82.7745 15.552 82.4985 15.296C82.2265 15.04 81.8385 14.912 81.3345 14.912C80.8465 14.912 80.4405 15.04 80.1165 15.296C79.7965 15.552 79.6125 15.904 79.5645 16.352ZM84.7777 20.006L86.9257 17.018L84.9037 14.06H86.5657L87.8317 16.07L89.0557 14.06H90.6757L88.7137 16.982L90.8437 20H89.1517L87.7837 17.912L86.3977 19.988L84.7777 20.006Z" fill="url(#paint2_linear_153_4923)"/>
<defs>
<linearGradient id="paint0_linear_153_4923" x1="54" y1="0" x2="54" y2="32" gradientUnits="userSpaceOnUse">
<stop stop-color="#E5FF5D"/>
<stop offset="1" stop-color="#A1FFB0"/>
</linearGradient>
<linearGradient id="paint1_linear_153_4923" x1="107.5" y1="27.0769" x2="-0.150849" y2="2.89772" gradientUnits="userSpaceOnUse">
<stop stop-color="#E5FF5D"/>
<stop offset="1" stop-color="#5DFFFF"/>
</linearGradient>
<linearGradient id="paint2_linear_153_4923" x1="91.5" y1="24.3077" x2="15.5824" y2="8.37154" gradientUnits="userSpaceOnUse">
<stop stop-color="#E5FF5D"/>
<stop offset="1" stop-color="#5DFFFF"/>
</linearGradient>
</defs>
</svg>

<svg width="108" height="32" fill="none" xmlns="http://www.w3.org/2000/svg"><rect x="1" y=".5" width="106" height="31" rx="15.5" fill="url(#a)" fill-opacity=".1"/><rect x="1" y=".5" width="106" height="31" rx="15.5" stroke="url(#b)"/><path d="m16.626 20 3.264-8.4h1.458l3.348 8.4h-1.518l-.774-2.004h-3.558L18.102 20h-1.476Zm2.568-3.162h2.85l-1.452-3.66-1.398 3.66Zm10 3.342c-.396 0-.754-.058-1.074-.174a2.573 2.573 0 0 1-.822-.48 2.617 2.617 0 0 1-.564-.714l.192-.294V20h-1.188v-8.64h1.314v4.068l-.27-.294c.264-.384.594-.688.99-.912.396-.228.864-.342 1.404-.342.592 0 1.112.142 1.56.426.452.28.804.658 1.056 1.134.252.476.378 1.006.378 1.59 0 .452-.074.87-.222 1.254a3.002 3.002 0 0 1-.612 1.002c-.264.28-.578.5-.942.66a3.015 3.015 0 0 1-1.2.234Zm-.24-1.17c.364 0 .688-.08.972-.24.288-.164.514-.394.678-.69.164-.296.246-.646.246-1.05s-.082-.754-.246-1.05c-.16-.3-.384-.53-.672-.69-.284-.16-.61-.24-.978-.24s-.696.08-.984.24c-.284.16-.508.39-.672.69-.164.296-.246.646-.246 1.05s.082.754.246 1.05c.164.296.388.526.672.69.288.16.616.24.984.24Zm7.307 1.17c-.62 0-1.174-.142-1.662-.426a3.162 3.162 0 0 1-1.14-1.146 3.11 3.11 0 0 1-.414-1.578 3.1 3.1 0 0 1 .906-2.208 3.24 3.24 0 0 1 1.026-.69 3.24 3.24 0 0 1 1.29-.252c.62 0 1.172.144 1.656.432.488.284.87.666 1.146 1.146.276.476.414 1 .414 1.572 0 .42-.08.82-.24 1.2-.156.38-.378.716-.666 1.008a3.17 3.17 0 0 1-1.02.69 3.256 3.256 0 0 1-1.296.252Zm0-1.17c.368 0 .694-.08.978-.24.288-.164.514-.394.678-.69.164-.296.246-.646.246-1.05s-.082-.754-.246-1.05c-.164-.3-.39-.53-.678-.69-.284-.16-.61-.24-.978-.24s-.696.08-.984.24c-.284.16-.508.39-.672.69-.16.296-.24.646-.24 1.05s.082.754.246 1.05c.164.296.388.526.672.69.288.16.614.24.978.24Zm6.84 1.17c-.532 0-.972-.106-1.32-.318a2.06 2.06 0 0 1-.774-.852 2.588 2.588 0 0 1-.258-1.152V14.06h1.32v3.552c0 .408.12.736.36.984.244.244.58.366 1.008.366.28 0 .53-.062.75-.186.22-.128.394-.306.522-.534.132-.228.198-.492.198-.792v-3.39h1.32V20h-1.188v-.702c-.232.28-.508.498-.828.654-.316.152-.686.228-1.11.228Zm7.458 0c-.58 0-1.044-.168-1.392-.504-.349-.336-.523-.85-.523-1.542v-5.808h1.32v1.734h1.65v1.092h-1.65v2.694c0 .416.078.71.235.882.16.168.384.252.672.252a1.58 1.58 0 0 0 .731-.174l.235 1.068c-.173.088-.37.16-.595.216-.22.06-.447.09-.683.09Zm-3.216-5.028V14.06h1.475v1.092h-1.475Zm12.82 5.028c-.873 0-1.635-.18-2.287-.54a3.827 3.827 0 0 1-1.524-1.524c-.36-.66-.54-1.43-.54-2.31 0-.64.106-1.226.318-1.758.216-.536.518-1 .906-1.392a4.138 4.138 0 0 1 1.386-.912 4.615 4.615 0 0 1 1.752-.324c.64 0 1.192.08 1.656.24.468.16.876.388 1.224.684l-.696 1.098a2.562 2.562 0 0 0-.924-.546c-.352-.12-.74-.18-1.164-.18-.468 0-.89.072-1.266.216-.376.144-.698.35-.966.618a2.696 2.696 0 0 0-.612.966c-.14.376-.21.802-.21 1.278 0 .648.126 1.202.378 1.662.256.46.616.812 1.08 1.056.468.24 1.02.36 1.656.36.424 0 .832-.062 1.224-.186a3.359 3.359 0 0 0 1.11-.618l.624 1.134a4.446 4.446 0 0 1-1.386.726 5.605 5.605 0 0 1-1.74.252Zm4.874 2.508a2.82 2.82 0 0 1-.636-.072 2.206 2.206 0 0 1-.612-.246l.3-1.128c.124.08.26.14.408.18.148.04.28.06.396.06.28 0 .5-.066.66-.198.16-.132.286-.336.378-.612l.198-.576-2.34-6.036h1.446l1.644 4.608 1.602-4.608h1.398l-2.568 6.798c-.184.476-.39.846-.618 1.11a1.86 1.86 0 0 1-.756.558 2.448 2.448 0 0 1-.9.162Zm5.877-.168v-8.46h1.188v.834c.236-.3.538-.544.906-.732.368-.188.822-.282 1.362-.282.58 0 1.094.138 1.542.414.452.272.804.646 1.056 1.122.252.472.378 1.01.378 1.614 0 .436-.072.846-.216 1.23-.144.38-.35.714-.618 1.002-.264.288-.58.514-.948.678a2.98 2.98 0 0 1-1.212.24c-.464 0-.872-.084-1.224-.252a2.755 2.755 0 0 1-.9-.678v3.27h-1.314Zm3.216-3.51c.368 0 .694-.08.978-.24.288-.164.512-.394.672-.69.164-.296.246-.646.246-1.05s-.082-.754-.246-1.05c-.164-.3-.39-.53-.678-.69a1.946 1.946 0 0 0-.972-.24c-.368 0-.696.08-.984.24-.284.16-.508.39-.672.69-.164.296-.246.646-.246 1.05s.082.754.246 1.05c.164.296.388.526.672.69.288.16.616.24.984.24Zm7.313 1.17c-.64 0-1.203-.13-1.686-.39a2.868 2.868 0 0 1-1.135-1.104c-.267-.472-.401-1.02-.401-1.644 0-.456.078-.876.233-1.26a2.98 2.98 0 0 1 1.657-1.668 3.3 3.3 0 0 1 1.254-.234c.492 0 .93.088 1.314.264.383.172.701.414.953.726.256.312.436.678.54 1.098.109.416.127.868.055 1.356h-4.74c-.008.356.07.668.234.936.163.264.397.47.701.618.309.148.67.222 1.087.222.335 0 .66-.05.972-.15.316-.104.602-.256.858-.456l.51.948a2.79 2.79 0 0 1-.697.402 4.64 4.64 0 0 1-.852.246 4.31 4.31 0 0 1-.858.09Zm-1.879-3.828h3.367c-.013-.448-.156-.8-.432-1.056-.272-.256-.66-.384-1.164-.384-.488 0-.894.128-1.218.384-.32.256-.505.608-.553 1.056Zm5.214 3.654 2.148-2.988-2.022-2.958h1.662l1.266 2.01 1.224-2.01h1.62l-1.962 2.922L90.844 20h-1.692l-1.368-2.088-1.386 2.076-1.62.018Z" fill="url(#c)"/><defs><linearGradient id="a" x1="54" y1="0" x2="54" y2="32" gradientUnits="userSpaceOnUse"><stop stop-color="#E5FF5D"/><stop offset="1" stop-color="#A1FFB0"/></linearGradient><linearGradient id="b" x1="107.5" y1="27.077" x2="-.151" y2="2.898" gradientUnits="userSpaceOnUse"><stop stop-color="#E5FF5D"/><stop offset="1" stop-color="#5DFFFF"/></linearGradient><linearGradient id="c" x1="91.5" y1="24.308" x2="15.582" y2="8.372" gradientUnits="userSpaceOnUse"><stop stop-color="#E5FF5D"/><stop offset="1" stop-color="#5DFFFF"/></linearGradient></defs></svg>
